vue/components/ui/button-platforme/assets/platforme_id.svg

<?xml version="1.0" encoding="UTF-8"?>
<svg width="58px" height="80px" viewBox="0 0 58 80" version="1.1" xmlns="http://www.w3.org/2000/svg" xmlns:xlink="http://www.w3.org/1999/xlink">
    <defs>
        <polygon id="path-1" points="0 0.18781155 57.8452161 0.18781155 57.8452161 79.2857143 0 79.2857143"></polygon>
    </defs>
    <g id="Page-1" stroke="none" stroke-width="1" fill="none" fill-rule="evenodd">
        <g id="platforme_iD" transform="translate(-841.000000, -1606.000000)">
            <g id="Platforme_id_symbol" transform="translate(841.000000, 1606.000000)">
                <g id="Group-3">
                    <mask id="mask-2" fill="white">
                        <use xlink:href="#path-1"></use>
                    </mask>
                    <g id="Clip-2"></g>
                    <path d="M22.4957081,0.18781155 L2.83634609,0.18781155 C1.26972891,0.18781155 -0.000351822917,1.60820669 -0.000351822917,3.36092705 L-0.000351822917,4.54177812 C-0.000351822917,6.25569909 1.22751016,7.68115502 2.75844245,7.68340426 L2.78658828,7.68340426 C18.896057,7.68340426 30.9188513,17.1718237 32.8498565,42.1085866 C32.9694763,43.6583131 31.9371273,45.0224772 30.5539607,45.1765502 L26.0395701,45.6792553 C25.6792029,45.7197416 25.4133253,46.0666869 25.4218695,46.4715502 C25.7395154,61.6752888 17.3485388,71.2711094 2.78658828,71.2711094 C2.7167263,71.2711094 2.64736693,71.2716717 2.57700234,71.272234 C1.14709349,71.2851672 0.00015078125,72.6077204 0.00015078125,74.2074924 L0.00015078125,76.3532675 C0.00015078125,77.9727204 1.17373151,79.2857143 2.62123151,79.2857143 L22.4957081,79.2857143 C42.0188643,79.2857143 57.8453669,61.5791337 57.8453669,39.7367629 C57.8453669,17.8943921 42.0188643,0.18781155 22.4957081,0.18781155" id="Fill-1" fill="#FFFFFF" mask="url(#mask-2)"></path>
                </g>
                <path d="M13.4642857,24.2105263 C13.4642857,27.1172664 11.1458689,29.4736842 8.28600445,29.4736842 C5.42555972,29.4736842 3.10714286,27.1172664 3.10714286,24.2105263 C3.10714286,21.3037862 5.42555972,18.9473684 8.28600445,18.9473684 C11.1458689,18.9473684 13.4642857,21.3037862 13.4642857,24.2105263" id="Fill-4" fill="#FFFFFF"></path>
                <path d="M8.63406799,63.1578947 L7.93736058,63.1578947 C5.26982596,63.1578947 3.10714286,61.1099983 3.10714286,58.5840459 L3.10714286,41.4165364 C3.10714286,38.8900017 5.26982596,36.8421053 7.93736058,36.8421053 L8.63406799,36.8421053 C11.3016026,36.8421053 13.4642857,38.8900017 13.4642857,41.4165364 L13.4642857,58.5840459 C13.4642857,61.1099983 11.3016026,63.1578947 8.63406799,63.1578947" id="Fill-6" fill="#FFFFFF"></path>
            </g>
        </g>
    </g>
</svg>

<svg width="58" height="80" viewBox="0 0 58 80" xmlns="http://www.w3.org/2000/svg" xmlns:xlink="http://www.w3.org/1999/xlink"><defs><path id="a" d="M0 .188h57.845v79.098H0z"/></defs><g fill="none" fill-rule="evenodd"><g><mask id="b" fill="#fff"><use xlink:href="#a"/></mask><path d="M22.496.188H2.836C1.27.188 0 1.608 0 3.36v1.18c0 1.715 1.228 3.14 2.758 3.142h.029c16.11 0 28.132 9.489 30.063 34.426.12 1.55-.913 2.913-2.296 3.068l-4.514.502c-.36.04-.627.388-.618.793.318 15.203-8.073 24.8-22.635 24.8h-.21C1.147 71.285 0 72.608 0 74.207v2.146c0 1.62 1.174 2.933 2.621 2.933h19.875c19.523 0 35.35-17.707 35.35-39.55 0-21.842-15.827-39.548-35.35-39.548" fill="#FFF" mask="url(#b)"/></g><path d="M13.464 24.21c0 2.907-2.318 5.264-5.178 5.264s-5.179-2.357-5.179-5.263c0-2.907 2.319-5.264 5.179-5.264 2.86 0 5.178 2.357 5.178 5.264M8.634 63.158h-.697c-2.667 0-4.83-2.048-4.83-4.574V41.417c0-2.527 2.163-4.575 4.83-4.575h.697c2.668 0 4.83 2.048 4.83 4.575v17.167c0 2.526-2.162 4.574-4.83 4.574" fill="#FFF"/></g></svg>
